X:287
T:St. Dunstan. (p)1687.PLFD.287
T:Clifford's Inn. (p)1687.PLFD.287
M:4/4
L:1/4
Q:1/2=80
S:Playford, Dancing Master,7th Ed,1st Supp,1687.
O:England
H:1687.
Z:Chris Partington
K:D
"_Scordatura"[A,EAe]||:f|fd/c/de|c>BcB/A/|FABc|F>EDe|
fd/c/de|c>BcB/A/|FAB>G|G3:|
|:a|ba/g/ f/g/a|g>fea|fe/f/ (g/f/)(e/d/)|c>d B/c/d|
(e/f/)(e/c/) (B/c/)(B/A/)|(F/E/)(F/A/) (B/c/)(B/D/)|(E/F/)AA>F|G3:|
